X:1
T:Angel Band
C:Traditional, Arr. Jay Buckey
S:jaybuckey.com
M:3/4
L:1/4
K:G
P:Verse
D | "G"D2 E | (G A) B | "C"G2 G | ("G"E D)
w:1.~My lat-est sun_ is sink-ing fast._
D | G2 A | "D"B2 A | "G"G3 | z2
w:My race is near-ly run.
D | D2 D | (G A B) | "C"G2 G | ("G"G D)
w:My strong-est trials__ now are past.
D | G2 A | "D"B2 A | "G"G3 | z3 |]
w:My tri-umph has be-gun.
%
P:Chorus
"D"A3 | A3 | "G"B2 A | G3 |
w:O, come, An-gel Band.
"D"A3 | A2 G | "G"B2 A | G2
w:Come and a-round me stand.
G | "C"E G G | A G E | "G"D2 E | G2
w:O, bear me a-way on your snow white wings
G | G2 G | "D"A2 G | ("G"B2 A | G2)
w:to my im-mor-tal home.__
G | "C"E E G | A G E | "G"D2 E | G2
w:O, bear me a-way on your snow white wings
G | G2 G | "D"B2 A | "G"G3 |]
w:to my im-mor-tal home.
%
W:2. O, bear my longing heart to Him
W:who bled and died for me,
W:Whose blood now cleanses from all sin
W:And gives me victory.
W:
W:(Chorus)
W:
W:3. I know I'm near the holy ranks
W:of friends and kindred dear.
W:I've brushed the dew on Jordan's banks.
W:The crossing must be near.
W:
W:4. I've almost gained my Heavenly home.
W:My spirit loudly sings.
W:The Holy ones, behold they come.
W:I hear the noise of wings.

%---------------------------------------------------------------------

